icons/old_woman.svg

<svg width="48" height="48" viewBox="0 0 48 48" fill="none" xmlns="http://www.w3.org/2000/svg">
<path fill-rule="evenodd" clip-rule="evenodd" d="M17.5001 9C17.5001 6.23858 19.7386 4 22.5001 4C25.2615 4 27.5001 6.23858 27.5001 9C27.5001 11.7614 25.2615 14 22.5001 14C19.7386 14 17.5001 11.7614 17.5001 9ZM22.5001 6C20.8432 6 19.5001 7.34315 19.5001 9C19.5001 10.6569 20.8432 12 22.5001 12C24.1569 12 25.5001 10.6569 25.5001 9C25.5001 7.34315 24.1569 6 22.5001 6Z" fill="black"/>
<path d="M18.1649 19.4596L17.993 20.6328C17.8281 21.7583 17.5098 23.2379 17.1281 24.8194L16.8161 26.1116L15.661 25.4536C15.3691 25.2873 15.1275 25.0949 14.9299 24.8932C14.3046 24.255 13.9875 23.3928 13.996 22.5096C14.0045 21.626 14.339 20.7554 14.9762 20.1091C15.3092 19.7714 15.7503 19.6437 16.0365 19.584C16.3562 19.5173 16.6937 19.4951 16.9794 19.4882L18.1649 19.4596Z" fill="black"/>
<path fill-rule="evenodd" clip-rule="evenodd" d="M12.1324 17.2991C13.58 15.8311 15.6125 15 17.9739 15H25.0113C30.0572 15 33.2185 16.833 35.0417 19.1383C36.037 20.3969 36.8152 22.0123 36.9856 23.7073L36.9865 23.7161L36.9881 23.7345L36.9887 23.7408L36.9889 23.7433L36.989 23.7451L36.9891 23.7463L36.9896 23.7509L36.992 23.7802L36.9921 23.7838C37.0362 24.3934 36.8947 24.9747 36.6149 25.4713C37.4479 26.0043 38.0001 26.9377 38.0001 28V43C38.0001 43.5523 37.5523 44 37.0001 44C36.4478 44 36.0001 43.5523 36.0001 43V28C36.0001 27.4477 35.5523 27 35.0001 27C34.4478 27 34.0001 27.4477 34.0001 28V28.343C34.0001 28.8953 33.5523 29.343 33.0001 29.343C32.4478 29.343 32.0001 28.8953 32.0001 28.343V28C32.0001 27.4682 32.1384 26.9687 32.3811 26.5356C32.1677 26.3847 31.9887 26.2072 31.8386 26.0175C31.4003 25.4634 31.1775 24.7491 31.0218 24.2498L31.0009 24.1829C30.9784 24.1112 30.957 24.0426 30.9354 23.9751C30.8409 23.6789 30.6634 23.2706 30.34 22.8617C30.0007 22.4327 29.3834 21.8509 28.2084 21.4524C28.9788 25.2636 30.88 31.9833 31.6465 34.641C31.9812 35.8016 31.2183 36.9842 30.0288 37.1652C23.9527 38.0893 20.0575 38.1213 13.9705 37.1706C12.777 36.9842 12.0218 35.7913 12.3658 34.6323C12.723 33.4291 13.3303 31.3521 13.9545 29.0772C13.252 28.7142 12.6215 28.2497 12.077 27.6939C10.6481 26.2354 9.98257 24.3234 10.0003 22.4712C10.0181 20.621 10.7174 18.7342 12.1324 17.2991ZM34.9928 23.8795C34.9931 23.903 34.9936 23.93 34.994 23.9491C34.9942 23.9568 34.9945 23.9712 34.9949 23.9832C34.9949 23.9832 34.9954 23.9981 34.9967 24.0157C34.997 24.0203 34.9977 24.0308 34.999 24.0444C34.9777 24.5408 34.5903 24.9544 34.0848 24.9966C33.8357 25.0173 33.6966 24.9816 33.6209 24.9497C33.5482 24.919 33.4806 24.8695 33.4072 24.7767C33.2232 24.5441 33.096 24.1811 32.9095 23.5854L32.9092 23.5842C32.8871 23.5137 32.8641 23.4403 32.8407 23.3671C32.6896 22.8934 32.4119 22.2573 31.9087 21.6211C31.137 20.6453 29.7282 19.536 27.108 19.1457L25.7852 18.9486L25.9703 20.2732C26.4459 23.6764 28.8642 32.211 29.7229 35.1887C23.8433 36.0827 20.1548 36.1119 14.2849 35.1954C14.6876 33.8387 15.4052 31.3818 16.11 28.7738L16.3471 27.8962L15.496 27.5767C14.7154 27.2838 14.0478 26.8477 13.5057 26.2943C12.4788 25.2461 11.9871 23.8588 12.0003 22.4904C12.0134 21.1228 12.5305 19.7439 13.5565 18.7034C14.5931 17.6521 16.0956 17 17.9739 17H25.0113C29.5235 17 32.0749 18.6111 33.4729 20.3789C34.2795 21.3987 34.8625 22.6517 34.9928 23.8795Z" fill="black"/>
<path d="M17.801 43.8743C17.0561 43.7745 16.5001 43.139 16.5001 42.3875V39.0138C17.8654 39.2166 19.1318 39.347 20.3678 39.4067L19.4472 42.7822C19.2495 43.5072 18.5458 43.974 17.801 43.8743Z" fill="black"/>
<path d="M24.5529 42.7822L23.6305 39.3999C24.8671 39.3354 26.1341 39.2016 27.5001 39V42.3875C27.5001 43.139 26.944 43.7745 26.1992 43.8743C25.4543 43.974 24.7506 43.5072 24.5529 42.7822Z" fill="black"/>
</svg>

<svg
  xmlns="http://www.w3.org/2000/svg"
  width="24"
  height="24"
  viewBox="0 0 24 24"
  fill="none"
  stroke="currentColor"
  stroke-width="2"
  stroke-linecap="round"
  stroke-linejoin="round"
>
  <path
    fill-rule="evenodd"
    d="M17.5 9a5 5 0 1 1 10 0 5 5 0 0 1-10 0m5-3a3 3 0 1 0 0 6 3 3 0 0 0 0-6"
    clip-rule="evenodd"
  />
  <path d="m18.165 19.46-.172 1.173c-.165 1.125-.483 2.605-.865 4.186l-.312 1.293-1.155-.658a3.3 3.3 0 0 1-.731-.56c-.625-.639-.942-1.501-.934-2.384a3.46 3.46 0 0 1 .98-2.4c.333-.339.774-.466 1.06-.526.32-.067.658-.089.943-.096z" />
  <path
    fill-rule="evenodd"
    d="M12.132 17.3c1.448-1.469 3.48-2.3 5.842-2.3h7.037c5.046 0 8.208 1.833 10.03 4.138.996 1.259 1.774 2.874 1.945 4.57v.008l.002.018v.009l.001.002v.006l.003.03v.003c.044.61-.097 1.19-.377 1.687A3 3 0 0 1 38 28v15a1 1 0 0 1-2 0V28a1 1 0 0 0-2 0v.343a1 1 0 0 1-2 0V28c0-.532.138-1.031.381-1.464a2.6 2.6 0 0 1-.542-.519c-.439-.554-.662-1.268-.817-1.767L31 24.183l-.066-.208a3.6 3.6 0 0 0-.595-1.113c-.34-.43-.957-1.011-2.132-1.41.77 3.812 2.672 10.531 3.439 13.189a1.993 1.993 0 0 1-1.618 2.524c-6.076.924-9.971.956-16.059.006a1.993 1.993 0 0 1-1.604-2.539c.357-1.203.964-3.28 1.588-5.555a7.3 7.3 0 0 1-1.877-1.383c-1.429-1.459-2.094-3.37-2.077-5.223a7.46 7.46 0 0 1 2.132-5.172m22.86 6.58.002.07v.033l.005.061a1 1 0 0 1-.914.953c-.25.02-.388-.015-.464-.047a.53.53 0 0 1-.214-.173c-.184-.233-.311-.596-.497-1.192l-.07-.218a5.6 5.6 0 0 0-.931-1.746c-.772-.976-2.18-2.085-4.801-2.475l-1.323-.197.185 1.324c.476 3.403 2.894 11.938 3.753 14.916-5.88.894-9.568.923-15.438.006.403-1.356 1.12-3.813 1.825-6.421l.237-.878-.851-.32a5.4 5.4 0 0 1-1.99-1.282C12.479 25.246 11.987 23.86 12 22.49a5.46 5.46 0 0 1 1.556-3.787c1.037-1.05 2.54-1.703 4.418-1.703h7.037c4.512 0 7.064 1.611 8.462 3.379.806 1.02 1.39 2.273 1.52 3.5"
    clip-rule="evenodd"
  />
  <path d="M17.801 43.874a1.5 1.5 0 0 1-1.3-1.486v-3.374c1.364.203 2.63.333 3.867.393l-.92 3.375a1.5 1.5 0 0 1-1.647 1.092" />
  <path d="M24.553 42.782 23.63 39.4a41 41 0 0 0 3.87-.4v3.388a1.5 1.5 0 0 1-2.948.394" />
</svg>
